src/components/Icon/assets/volume-off-filled.svg

<svg width="24" height="24" viewBox="0 0 24 24" fill="none" xmlns="http://www.w3.org/2000/svg">
<path fill-rule="evenodd" clip-rule="evenodd" d="M15.0001 12.8788L22.2531 20.1318L20.8391 21.5458L2.4541 3.16083L3.8681 1.74683L8.3541 6.23283L12.2931 2.29283C12.4811 2.10583 12.7351 1.99983 13.0001 1.99983H14.0001C14.5521 1.99983 15.0001 2.44783 15.0001 2.99983V12.8788ZM2.0002 8C2.0002 7.448 2.4482 7 3.0002 7H4.8792L15.0002 17.121V21C15.0002 21.552 14.5522 22 14.0002 22H13.0002C12.7352 22 12.4802 21.895 12.2932 21.707L7.5862 17H3.0002C2.4482 17 2.0002 16.552 2.0002 16V8Z" fill="#65676A"/>
</svg>

<svg xmlns="http://www.w3.org/2000/svg" width="24" height="24" viewBox="0 0 24 24">
    <path fill="#65676A" fill-rule="evenodd" d="M4.88 7L15 17.121v3.88c0 .551-.448 1-1 1h-1c-.265 0-.52-.106-.707-.294L7.586 17H3c-.552 0-1-.448-1-1V8c0-.552.448-1 1-1h1.88zM3.867 1.747l4.486 4.486 3.94-3.94C12.48 2.106 12.734 2 13 2h1c.552 0 1 .448 1 1v9.879l7.253 7.253-1.414 1.414L2.454 3.16l1.414-1.414z"/>
</svg>
